X: 1
%%topspace .5
T: Green Apple Quickstep
C: R-62
C: David Kaynor
M: C|
Z: Transcribed to abc by Mary Lou Knack
R: reel
K: G
B/c/| "G"d2d>e dBGD| "C"E>GEC "G"B,GG2| "D"A2A>B cABc| d>^cde d=cBA|
      "G"G>FGA Bdd2| "C"e>def "Gdim7"g2ga| "G"b>agd "C"cea>e| "G"dg"D"a>f "G"g2:|
|:\
g/f/| "Em"e>^def "C"g>fge| "D"d>edB "G"d2gf| "C"e>fge "G"dBGE| "D"D2F>E DCB,A,|
      "G"G,>B,DB, "C"C>EGE| "D"D>FAF "Em"G2 G>F| "C"EGce "G"d>ega| "G"b2"D"a2 "G"g2:|
P: Harmony
G/A/| B2B>c BGDB,| C>ECA, G,B,[B,2D2]| F2F>G AFGA| B>ABc BAGF|
      D>DEF GBB2| cBcd e2ef| g>feB Ace>c| Bdd>c [B2d2]:|
|:\
B/d/| B>Bcd e>dec| B>cBG B2Bd| c>dec BGEG| F2A>G FEDC|
      B,>DGD E>GcG| F>AdA B2BD| C2c2 B>cef| gdfd d2:|
%%text 1/25/02
